app/dist/common/images/latrobe-magnesium-limited.svg

<svg height="18" viewBox="0 0 18 18" width="18" xmlns="http://www.w3.org/2000/svg"><path d="m0 0h18v18h-18z" fill="#00011f"/><path d="m5.7 4h-.7v5h.7zm2.3 4.45h-2.3v.55h2.3zm.71.97h-.34l-.99 4.58h.74l.59-2.86 1.07 2.86h.26l1.04-2.86.59 2.86h.74l-1-4.58h-.34l-1.18 3.2zm3.29-2.92a1.5 1.5 0 1 1 -3 0 1.5 1.5 0 0 1 3 0z" fill="#fff"/></svg>

<!-- by TradingView --><svg width="18" height="18" viewBox="0 0 18 18" xmlns="http://www.w3.org/2000/svg"><path fill="#00011F" d="M0 0h18v18H0z"/><path d="M5.7 4H5v5h.7V4ZM8 8.45H5.7V9H8v-.55ZM8.71 9.42h-.34L7.38 14h.74l.59-2.86L9.78 14h.26l1.04-2.86.59 2.86h.74l-1-4.58h-.34l-1.18 3.2-1.18-3.2ZM12 6.5a1.5 1.5 0 1 1-3 0 1.5 1.5 0 0 1 3 0Z" fill="#fff"/></svg>
